configs/network-icons/omni-dark.svg

<svg width="30" height="30" viewBox="0 0 30 30" fill="none" xmlns="http://www.w3.org/2000/svg">
<g clip-path="url(#clip0_11311_6203)">
<path d="M30.0013 10.9812H21.9635V19.019H30.0013V10.9812Z" fill="#0564FF"/>
<path d="M19.0196 -1.19597e-05L15.0007 6.96094L21.9617 10.9798L25.9806 4.01889L19.0196 -1.19597e-05Z" fill="#0564FF"/>
<path d="M8.03685 19.0137L4.01794 25.9746L10.9789 29.9935L14.9978 23.0326L8.03685 19.0137Z" fill="#0564FF"/>
<path d="M8.03781 10.9812H0V19.019H8.03781V10.9812Z" fill="#0564FF"/>
<path d="M21.9636 19.0202L15.0027 23.0391L19.0216 30L25.9825 25.9811L21.9636 19.0202Z" fill="#0564FF"/>
<path d="M10.9811 0.00343275L4.02014 4.02234L8.03905 10.9833L15 6.96438L10.9811 0.00343275Z" fill="#0564FF"/>
</g>
<defs>
<clipPath id="clip0_11311_6203">
<rect width="30" height="30" fill="white"/>
</clipPath>
</defs>
</svg>

<svg xmlns="http://www.w3.org/2000/svg" fill="none" viewBox="0 0 30 30">
  <g fill="#0564FF" clip-path="url(#omni-dark_svg__a)">
    <path d="M30.001 10.981h-8.038v8.038h8.038v-8.038ZM19.02 0 15 6.96l6.962 4.02 4.019-6.961L19.02 0ZM8.037 19.014l-4.02 6.96 6.962 4.02 4.019-6.961-6.961-4.02Z"/>
    <path d="M8.038 10.981H0v8.038h8.038v-8.038Zm13.926 8.039-6.961 4.02L19.022 30l6.96-4.019-4.018-6.96Z"/>
    <path d="m10.981.003-6.96 4.02 4.018 6.96L15 6.964 10.981.004Z"/>
  </g>
  <defs>
    <clipPath id="omni-dark_svg__a">
      <path fill="#fff" d="M0 0h30v30H0z"/>
    </clipPath>
  </defs>
</svg>
